images/svg/icons/social/diigo_hover.svg

<svg xmlns="http://www.w3.org/2000/svg" viewBox="0 0 40 40"><defs><style>.a{fill:#276bb2;}.b{fill:#2e5086;}.c{fill:#fff;}</style></defs><title>diigo_hover</title><rect class="a" width="40" height="40"/><rect class="b" width="40" height="40"/><path class="c" d="M20,16.8c3.4-.1,5.3-1.9,7-3.6V33.7H23.6a20.9,20.9,0,0,0-.1-2.5V25.5c0-2.2.1-4.3,0.1-6.5-0.5.1-1,.4-1.6,0.5a8.45,8.45,0,0,1-5.7-.6V33.6H12.9V13.2c1.7,1.9,3.7,3.7,7.1,3.6h0Zm5.4-6a2.24,2.24,0,0,0,2.2-2.3,2.2,2.2,0,1,0-4.4,0,2.24,2.24,0,0,0,2.2,2.3h0Zm-10.8,0a2.24,2.24,0,0,0,2.2-2.3,2.2,2.2,0,1,0-4.4,0,2.24,2.24,0,0,0,2.2,2.3h0Z"/></svg>

<?xml version="1.0" encoding="utf-8"?>
<!-- Generator: Adobe Illustrator 19.2.0, SVG Export Plug-In . SVG Version: 6.00 Build 0)  -->
<svg version="1.1" id="Layer_1" xmlns:sketch="http://www.bohemiancoding.com/sketch/ns"
	 xmlns="http://www.w3.org/2000/svg" xmlns:xlink="http://www.w3.org/1999/xlink" x="0px" y="0px" viewBox="0 0 40 40"
	 style="enable-background:new 0 0 40 40;" xml:space="preserve">
<style type="text/css">
	.st0{fill:#276BB2;}
	.st1{fill-opacity:0.3;}
	.st2{fill:#FFFFFF;}
</style>
<title>diigo_hover</title>
<desc>Created with Sketch.</desc>
<g id="Page-1" sketch:type="MSPage">
	<g id="diigo_hover" sketch:type="MSLayerGroup">
		<g id="bg">
			<g sketch:type="MSShapeGroup">
				<rect id="path-1" class="st0" width="40" height="40"/>
			</g>
			<g>
				<rect id="path-1_1_" class="st1" width="40" height="40"/>
			</g>
		</g>
		<path id="icon" sketch:type="MSShapeGroup" class="st2" d="M20,16.8c3.4-0.1,5.3-1.9,7-3.6v20.4h-3.4c0-0.8,0-1.7-0.1-2.5v-5.7
			c0-2.2,0.1-4.3,0.1-6.4c-0.5,0.1-1,0.4-1.6,0.5c-1.8,0.5-4.3,0.2-5.7-0.6c0,1,0,2,0,3v10.7c0,0.3,0,0.7,0,1h-3.4V13.2
			C14.6,15,16.6,16.8,20,16.8L20,16.8z M25.4,10.8c1.2,0,2.2-1,2.2-2.3s-1-2.3-2.2-2.3c-1.2,0-2.2,1-2.2,2.3S24.2,10.8,25.4,10.8
			L25.4,10.8z M14.6,10.8c1.2,0,2.2-1,2.2-2.3s-1-2.3-2.2-2.3c-1.2,0-2.2,1-2.2,2.3S13.4,10.8,14.6,10.8L14.6,10.8z"/>
	</g>
</g>
</svg>
